X:22
T:Miss Gordon of Abergeldie's Strathspey
S:Petrie's Collection of Strathspey Reels and Country Dances &c., 1790
Z:Steve Wyrick <sjwyrick'at'gmail'dot'com>, 3/6/04
N:Petrie's First Collection, page 11
L:1/8
M:C
R:Strathspey
K:A
"^Slow"
 E      |A>Bcc           TB>A      Bc |e>f    a/f/e/c/   TB>A       F2       |\
         A>Bcc           TB>ABc       |e>f    a/f/e/c/    e3                :|
(3e/f/g/|a>b a/g/f/e/    Tf>ec>f      |ed/c/ TB>A        (B/c/B/A/) F(3e/f/g/|\
         a>b a/g/f/e/    Tf>efa       |e>f   (a/f/)(e/c/) e(A/B/c/d/e/f/4g/4)|
         a>b (a/g/)(f/e/) f/e/f/g/ a>f|e>c    d/c/B/A/    B>AFA              |\
         E>FA>B           c>ef>a      |e>f    a/f/e/c/   [A3c3e3]            |]
